icons/svg/topo/topo_apartment.svg

<?xml version="1.0" encoding="UTF-8" standalone="no"?>
<!-- Created with Inkscape (http://www.inkscape.org/) -->

<svg
   xmlns:dc="http://purl.org/dc/elements/1.1/"
   xmlns:cc="http://creativecommons.org/ns#"
   xmlns:rdf="http://www.w3.org/1999/02/22-rdf-syntax-ns#"
   xmlns:svg="http://www.w3.org/2000/svg"
   xmlns="http://www.w3.org/2000/svg"
   xmlns:sodipodi="http://sodipodi.sourceforge.net/DTD/sodipodi-0.dtd"
   xmlns:inkscape="http://www.inkscape.org/namespaces/inkscape"
   version="1.0"
   width="580"
   height="580"
   id="svg2"
   sodipodi:version="0.32"
   inkscape:version="0.91 r"
   sodipodi:docname="topo_apartment.svg"
   inkscape:output_extension="org.inkscape.output.svg.inkscape">
  <metadata
     id="metadata2975">
    <rdf:RDF>
      <cc:Work
         rdf:about="">
        <dc:format>image/svg+xml</dc:format>
        <dc:type
           rdf:resource="http://purl.org/dc/dcmitype/StillImage" />
        <cc:license
           rdf:resource="http://web.resource.org/cc/PublicDomain" />
        <dc:language>en</dc:language>
        <dc:title />
      </cc:Work>
    </rdf:RDF>
  </metadata>
  <sodipodi:namedview
     inkscape:window-height="1006"
     inkscape:window-width="1920"
     inkscape:pageshadow="2"
     inkscape:pageopacity="0.0"
     guidetolerance="10.0"
     gridtolerance="10.0"
     objecttolerance="10.0"
     borderopacity="1.0"
     bordercolor="#666666"
     pagecolor="#ffffff"
     id="base"
     inkscape:zoom="0.23041928"
     inkscape:cx="493.95733"
     inkscape:cy="-28.217111"
     inkscape:window-x="1920"
     inkscape:window-y="0"
     inkscape:current-layer="svg2"
     showgrid="false"
     inkscape:window-maximized="1" />
  <defs
     id="defs4">
    <inkscape:perspective
       sodipodi:type="inkscape:persp3d"
       inkscape:vp_x="0 : 290 : 1"
       inkscape:vp_y="0 : 1000 : 0"
       inkscape:vp_z="580 : 290 : 1"
       inkscape:persp3d-origin="290 : 193.33333 : 1"
       id="perspective2441" />
    <inkscape:perspective
       id="perspective3452"
       inkscape:persp3d-origin="30 : 20 : 1"
       inkscape:vp_z="60 : 30 : 1"
       inkscape:vp_y="0 : 1000 : 0"
       inkscape:vp_x="0 : 30 : 1"
       sodipodi:type="inkscape:persp3d" />
    <symbol
       viewBox="244.5 110 489 219.9"
       id="symbol-university">
      <path
         id="path4460"
         d="M79,43l57,119c0,0,21-96,104-96s124,106,124,106l43-133l82-17L0,17L79,43z" />
      <path
         id="path4462"
         d="M94,176l-21,39"
         stroke-width="20"
         stroke="#000000"
         fill="none" />
      <path
         id="path4464"
         d="M300,19c0,10.5-22.6,19-50.5,19S199,29.5,199,19s22.6-19,50.5-19S300,8.5,300,19z" />
      <path
         id="path4466"
         d="M112,216l-16-38L64,88c0,0-9-8-4-35s16-24,16-24"
         stroke-width="20"
         stroke="#000000"
         ill="none" />
    </symbol>
    <inkscape:perspective
       id="perspective4471"
       inkscape:persp3d-origin="372.04724 : 350.78739 : 1"
       inkscape:vp_z="744.09448 : 526.18109 : 1"
       inkscape:vp_y="0 : 1000 : 0"
       inkscape:vp_x="0 : 526.18109 : 1"
       sodipodi:type="inkscape:persp3d" />
    <inkscape:perspective
       id="perspective4668"
       inkscape:persp3d-origin="6 : 4 : 1"
       inkscape:vp_z="12 : 6 : 1"
       inkscape:vp_y="0 : 1000 : 0"
       inkscape:vp_x="0 : 6 : 1"
       sodipodi:type="inkscape:persp3d" />
    <inkscape:perspective
       id="perspective4904"
       inkscape:persp3d-origin="16 : 10.666667 : 1"
       inkscape:vp_z="32 : 16 : 1"
       inkscape:vp_y="0 : 1000 : 0"
       inkscape:vp_x="0 : 16 : 1"
       sodipodi:type="inkscape:persp3d" />
  </defs>
  <g
     id="g1327">
    <path
       d="M 66.275,1.768 C 24.94,1.768 1.704,23.139 1.704,66.804 L 1.704,516.927 C 1.704,557.771 22.599,579.156 63.896,579.156 L 515.92,579.156 C 557.227,579.156 578.149,558.841 578.149,516.927 L 578.149,66.804 C 578.149,24.203 557.227,1.768 514.628,1.768 C 514.624,1.768 66.133,1.625 66.275,1.768 z "
       style="fill:#111;stroke:#eee;stroke-width:3.40799999"
       id="path1329" />
  </g>
  <path
     style="fill:#ffffff;fill-opacity:1;fill-rule:evenodd;stroke:#ffffff;stroke-width:32.2921524;stroke-linecap:round;stroke-linejoin:miter;stroke-miterlimit:4;stroke-dasharray:none;stroke-opacity:1"
     d="M 71.545722,274.03605 68.662514,498.92637"
     id="path2157"
     inkscape:connector-curvature="0" />
  <path
     style="fill:#ffffff;fill-opacity:1;fill-rule:evenodd;stroke:#ffffff;stroke-width:32.2919426;stroke-linecap:butt;stroke-linejoin:miter;stroke-miterlimit:4;stroke-dasharray:none;stroke-opacity:1"
     d="m 74.428933,415.3133 432.481397,2.88321"
     id="path2159"
     inkscape:connector-curvature="0" />
  <path
     style="fill:#ffffff;fill-opacity:1;fill-rule:evenodd;stroke:#ffffff;stroke-width:32.2921524;stroke-linecap:round;stroke-linejoin:miter;stroke-miterlimit:4;stroke-dasharray:none;stroke-opacity:1"
     d="m 509.79354,490.27674 2.8832,-147.04367"
     id="path2161"
     inkscape:connector-curvature="0" />
  <rect
     style="fill:#ffffff;fill-opacity:1;stroke:#ffffff;stroke-width:37.13573456;stroke-miterlimit:4;stroke-dasharray:none;stroke-opacity:1"
     id="rect2163"
     width="227.77353"
     height="40.364929"
     x="238.77563"
     y="333.14188"
     ry="20.182465" />
  <ellipse
     style="fill:#ffffff;fill-opacity:1;stroke:#ffffff;stroke-width:47.74694061;stroke-miterlimit:4;stroke-dasharray:none;stroke-opacity:1"
     id="path2167"
     cx="174.62045"
     cy="279.33075"
     rx="31.455317"
     ry="27.851305" />
  <rect
     style="fill:#ffffff;fill-opacity:1;stroke:#ffffff;stroke-width:32.2919426;stroke-miterlimit:4;stroke-dasharray:none;stroke-opacity:1"
     id="rect2169"
     width="87.937881"
     height="7.2080231"
     x="110.46905"
     y="364.85718"
     ry="3.6040115" />
  <path
     style="color:#000000;font-style:normal;font-variant:normal;font-weight:normal;font-stretch:normal;font-size:medium;line-height:normal;font-family:Sans;-inkscape-font-specification:Sans;text-indent:0;text-align:start;text-decoration:none;text-decoration-line:none;letter-spacing:normal;word-spacing:normal;text-transform:none;direction:ltr;block-progression:tb;writing-mode:lr-tb;baseline-shift:baseline;text-anchor:start;display:inline;overflow:visible;visibility:visible;opacity:1;fill:#ffffff;fill-opacity:1;fill-rule:evenodd;stroke:#ffffff;stroke-width:0.96401161;stroke-linecap:butt;stroke-linejoin:miter;stroke-miterlimit:4;stroke-dasharray:none;stroke-dashoffset:0;stroke-opacity:1;marker:none;enable-background:accumulate"
     d="m 272.04047,59.497117 c -3.14021,-0.08965 -6.30134,0.886878 -8.84386,2.732021 l -78.97514,57.428782 c -3.65203,2.65555 -5.92045,7.11677 -5.91468,11.63221 l 0,55.85153 c 26.18238,0.0325 51.55601,11.37072 68.9765,30.27756 l 2.81651,0 0,3.21083 c 11.02048,13.16289 18.3279,29.59501 19.77195,48.1906 l 180.05993,0 c 23.35587,0 44.41475,10.0959 59.20318,26.08095 l 13.77277,0.25349 0,-163.86496 c 0.005,-4.51544 -2.26265,-8.97666 -5.91468,-11.63221 L 438.01781,62.229138 c -2.32215,-1.685181 -5.15904,-2.65072 -8.02707,-2.732021 -3.14952,-0.09586 -6.32201,0.881069 -8.87203,2.732021 L 350.59313,113.51791 280.06754,62.229138 c -2.32215,-1.685181 -5.15904,-2.65072 -8.02707,-2.732021 z m -50.66914,86.129083 28.72847,0 0,28.72848 -28.72847,0 z m 71.79302,0 28.72847,0 0,28.72848 -28.72847,0 z m 86.15725,0 28.70031,0 0,28.72848 -28.70031,0 z m 71.79302,0 28.7003,0 0,28.72848 -28.7003,0 z m -157.95027,71.79302 28.72847,0 0,28.72847 -28.72847,0 z m 86.15725,0 28.70031,0 0,28.72847 -28.70031,0 z m 71.79302,0 28.7003,0 0,28.72847 -28.7003,0 z"
     id="path3"
     inkscape:connector-curvature="0"
     sodipodi:nodetypes="cccccccccsccccccccccccccccccccccccccccccccccccccccccccc" />
  <path
     style="color:#000000;font-style:normal;font-variant:normal;font-weight:normal;font-stretch:normal;font-size:medium;line-height:normal;font-family:Sans;-inkscape-font-specification:Sans;text-indent:0;text-align:start;text-decoration:none;text-decoration-line:none;letter-spacing:normal;word-spacing:normal;text-transform:none;direction:ltr;block-progression:tb;writing-mode:lr-tb;baseline-shift:baseline;text-anchor:start;display:inline;overflow:visible;visibility:visible;fill:none;fill-opacity:1;fill-rule:evenodd;stroke:none;stroke-width:35.82899857;marker:none;enable-background:accumulate"
     d="m 174.61715,235.33227 c -25.10101,0 -47.59913,18.75338 -47.59913,43.99399 0,25.24062 22.49812,43.99399 47.59913,43.99399 25.10101,0 47.59914,-18.75337 47.59914,-43.99399 0,-25.24061 -22.49813,-43.99399 -47.59914,-43.99399 z m 0,32.27728 c 9.64358,0 15.32185,6.19362 15.32185,11.71671 0,5.52309 -5.67827,11.71671 -15.32185,11.71671 -9.64358,0 -15.32185,-6.19362 -15.32185,-11.71671 0,-5.52309 5.67827,-11.71671 15.32185,-11.71671 z m -119.22316,6.2245 -2.872847,224.89888 32.277284,0.39431 0.87312,-67.59641 409.070913,2.73203 -1.09844,55.7107 32.27728,0.61963 2.90102,-147.05034 -32.27729,-0.61964 -1.15477,59.06236 -409.324401,-2.73202 1.605415,-125.02518 -32.277284,-0.39432 z m 203.57784,43.17721 c -19.83113,0 -36.33307,16.44665 -36.33307,36.3049 0,19.85825 16.47483,36.33307 36.33307,36.33307 l 187.38287,0 c 19.85825,0 36.33307,-16.47482 36.33307,-36.33307 0,-19.85825 -16.50194,-36.3049 -36.33307,-36.3049 l -187.38287,0 z m -144.90979,31.71398 c -10.66834,0 -19.743786,9.07544 -19.743786,19.74378 0,10.66834 9.075446,19.74378 19.743786,19.74378 l 80.74954,0 c 10.66832,0 19.74378,-9.07545 19.74378,-19.74378 0,-10.66833 -9.07546,-19.74378 -19.74378,-19.74378 l -80.74954,0 z m 144.90979,0.5633 187.38287,0 c 2.53105,0 4.05579,1.5237 4.05579,4.02762 0,2.50392 -1.55186,4.05578 -4.05579,4.05578 l -187.38287,0 c -2.50392,0 -4.05578,-1.55186 -4.05578,-4.05578 0,-2.50392 1.52474,-4.02762 4.05578,-4.02762 z"
     id="path2157-7"
     inkscape:connector-curvature="0" />
</svg>

<svg width="580" height="580" viewBox="0 0 580 580" fill="none" xmlns="http://www.w3.org/2000/svg">
<g clip-path="url(#clip0)">
<path d="M66.2751 1.7679C24.9401 1.7679 1.7041 23.1389 1.7041 66.8039V516.927C1.7041 557.771 22.5991 579.156 63.8961 579.156H515.92C557.227 579.156 578.149 558.841 578.149 516.927V66.8039C578.149 24.2029 557.227 1.7679 514.628 1.7679C514.624 1.7679 66.1331 1.6249 66.2751 1.7679Z" fill="#111111" stroke="#EEEEEE" stroke-width="3.408"/>
<path fill-rule="evenodd" clip-rule="evenodd" d="M71.5458 274.036L68.6626 498.926Z" fill="white"/>
<path d="M71.5458 274.036L68.6626 498.926" stroke="white" stroke-width="32.2922" stroke-linecap="round"/>
<path fill-rule="evenodd" clip-rule="evenodd" d="M74.429 415.313L506.91 418.196Z" fill="white"/>
<path d="M74.429 415.313L506.91 418.196" stroke="white" stroke-width="32.2919"/>
<path fill-rule="evenodd" clip-rule="evenodd" d="M509.793 490.277L512.677 343.233Z" fill="white"/>
<path d="M509.793 490.277L512.677 343.233" stroke="white" stroke-width="32.2922" stroke-linecap="round"/>
<path d="M446.367 333.142H258.958C247.812 333.142 238.776 342.178 238.776 353.324C238.776 364.471 247.812 373.507 258.958 373.507H446.367C457.513 373.507 466.549 364.471 466.549 353.324C466.549 342.178 457.513 333.142 446.367 333.142Z" fill="white" stroke="white" stroke-width="37.1357"/>
<path d="M174.62 307.182C191.993 307.182 206.076 294.713 206.076 279.331C206.076 263.949 191.993 251.479 174.62 251.479C157.248 251.479 143.165 263.949 143.165 279.331C143.165 294.713 157.248 307.182 174.62 307.182Z" fill="white" stroke="white" stroke-width="47.7469"/>
<path d="M194.803 364.857H114.073C112.083 364.857 110.469 366.471 110.469 368.461C110.469 370.452 112.083 372.065 114.073 372.065H194.803C196.793 372.065 198.407 370.452 198.407 368.461C198.407 366.471 196.793 364.857 194.803 364.857Z" fill="white" stroke="white" stroke-width="32.2919"/>
<path fill-rule="evenodd" clip-rule="evenodd" d="M272.041 59.4972C268.9 59.4075 265.739 60.384 263.197 62.2292L184.222 119.658C180.57 122.314 178.301 126.775 178.307 131.29V187.142C204.489 187.174 229.863 198.512 247.283 217.419H250.1V220.63C261.12 233.793 268.428 250.225 269.872 268.821H449.932C473.288 268.821 494.347 278.917 509.135 294.902L522.908 295.155V131.29C522.913 126.775 520.645 122.314 516.993 119.658L438.018 62.2292C435.696 60.544 432.859 59.5785 429.991 59.4972C426.841 59.4013 423.669 60.3782 421.119 62.2292L350.593 113.518L280.068 62.2292C277.745 60.544 274.909 59.5785 272.041 59.4972V59.4972ZM221.371 145.626H250.1V174.355H221.371V145.626ZM293.164 145.626H321.893V174.355H293.164V145.626ZM379.322 145.626H408.022V174.355H379.322V145.626ZM451.115 145.626H479.815V174.355H451.115V145.626ZM293.164 217.419H321.893V246.148H293.164V217.419ZM379.322 217.419H408.022V246.148H379.322V217.419ZM451.115 217.419H479.815V246.148H451.115V217.419Z" fill="white" stroke="white" stroke-width="0.964012"/>
</g>
<defs>
<clipPath id="clip0">
<path d="M0 0H580V580H0V0Z" fill="white"/>
</clipPath>
</defs>
</svg>
